X: 25988
T: Mayn Ershtn Tants Bay Dir
R: waltz
M: 3/4
K: Aminor
|c2 A2 B2|~|c2 A B3|~|c2 A3 B|~|c3 A B2|
F2 E4-|E2 B2 c2|d6-|~|F4 E2|B4 c2|d6-|~|F3 E3-|E2 B3 c|d6-|
F2 E4-|E2 A2 B2|c6-|~|F4 E2|A4 B2|c6-|~|F3 E3-|E2 A3 B|c6-|

